X: 36587
T: Shake A Leg
R: reel
M: 4/4
K: Gmajor
DGGF G3A|BddB d2Bd|egge dBGB|A2BA GEEG|
DGGF ~G3A|BddB d2Bd|egge dBGB|1 AGFA G3E:|2 AGFA GABd||
|:eB~B2 efge|fB~B2 fgaf|g~B3 bBaB|gB~B2 ABGE|
DGGF ~G3A|BddB d2Bd|egge dBGB|1 AGFA GABd:|2 AGFA G3E||

